packages/ffe-icons/icons/filled/md/view_day.svg

<svg xmlns="http://www.w3.org/2000/svg" height="24" viewBox="0 -960 960 960" width="24"><path d="M169.001-184.617q-12.385 0-20.692-8.629-8.308-8.629-8.308-21.384t8.625-21.371q8.625-8.615 21.375-8.615h620.998q12.385 0 20.692 8.629 8.308 8.629 8.308 21.384t-8.625 21.371q-8.625 8.615-21.375 8.615H169.001Zm43.308-155.384q-29.827 0-51.067-21.241-21.241-21.24-21.241-51.067v-135.382q0-29.827 21.241-51.067 21.24-21.241 51.067-21.241h535.382q29.827 0 51.067 21.241 21.241 21.24 21.241 51.067v135.382q0 29.827-21.241 51.067-21.24 21.241-51.067 21.241H212.309Zm-43.308-375.383q-12.385 0-20.692-8.629-8.308-8.629-8.308-21.384t8.625-21.371q8.625-8.615 21.375-8.615h620.998q12.385 0 20.692 8.629 8.308 8.629 8.308 21.384t-8.625 21.371q-8.625 8.615-21.375 8.615H169.001Z"/></svg>

<svg xmlns="http://www.w3.org/2000/svg" height="24" viewBox="0 -960 960 960" width="24"><path d="M169-184.62q-12.38 0-20.69-8.63-8.31-8.62-8.31-21.38t8.63-21.37q8.62-8.62 21.37-8.62h621q12.38 0 20.69 8.63T820-214.6q0 12.75-8.63 21.37-8.62 8.61-21.37 8.61H169ZM212.31-340q-29.83 0-51.07-21.24Q140-382.48 140-412.31v-135.38q0-29.83 21.24-51.07Q182.48-620 212.31-620h535.38q29.83 0 51.07 21.24Q820-577.52 820-547.69v135.38q0 29.83-21.24 51.07Q777.52-340 747.69-340H212.31ZM169-715.38q-12.38 0-20.69-8.63T140-745.4q0-12.75 8.63-21.37 8.62-8.61 21.37-8.61h621q12.38 0 20.69 8.63 8.31 8.62 8.31 21.38T811.37-724q-8.62 8.62-21.37 8.62H169Z"/></svg>
